X:1
T:Title
%%score [ ( 1 2 ) ( 3 4 ) ] { ( 5 6 ) | ( 7 8 ) }
L:1/8
Q:1/4=120
M:4/4
K:D
V:1 treble nm="Midi_74"
V:2 treble 
V:3 bass nm="Midi_74"
V:4 bass 
V:5 treble nm="Org."
V:6 treble 
V:7 bass 
V:8 bass 
V:1
 (d6 c2) | B4 (B3 A) |"^Double Counterpoint." G8 || G8 | F4 B4 | B4 ^A4 | B8 || A8 | B4 F4 | G8 || %10
 c8 | d4 D4 |"^William Henry Havergal\n(1793-1870)" E4 E4 | D8 |] %14
V:2
 D8 | D4 F4 | E8 || E8 | D4 D4 | E4 E4 | D8 || D8 | ^D4 D4 | E8 || G8 | F4 D4 | D4 C4 | D8 |] %14
V:3
 A,8 | G,4 B,4 | B,8 || C8 | D4 B,4 | G,4 E,4 | F,8 || F,8 | F,4 B,4 | B,8 || E8 | D4 A,4 | %12
 B,4 (A,2 G,2) | F,8 |] %14
V:4
 F,8 | G,4 ^D,4 | E,8 || A,8 | B,4 B,,4 | C,4 C,4 | B,,8 || (D,6 C,2) | B,,4 (B,,3 A,,) | G,,8 || %10
 A,,8 | B,,4 F,,4 | G,,4 A,,4 | D,8 |] %14
V:5
 d6 c2 | B4 B3 A | G8 || G8 | F4 B4 | B4 ^A4 | B8 || A8 | B4 F4 | G8 || c8 | d4 D4 | E4 E4 | D8 |] %14
V:6
 [DA]8 | [DG]4 [B,F]4 | [B,E]8 || [CE]8 | D4 [DF]4 | E4 E4 | D8 || [DF]8 | [^DF]4 [B,D]4 | %9
 [B,E]8 || [EG]8 | [DF]4 D4 | D4 C4 | D8 |] %14
V:7
 x8 | x8 | x8 || x8 | x4 B,4 | G,4 E,4 | F,8 || x8 | x8 | x8 || x8 | x4 A,4 | B,4 A,2 G,2 | F,8 |] %14
V:8
 F,8 | G,4 ^D,4 | E,8 || A,8 | B,4 B,,4 | C,4 C,4 | B,,8 || D,6 C,2 | B,,4 B,,3 A,, | G,,8 || %10
 A,,8 | B,,4 F,,4 | G,,4 A,,4 | D,8 |] %14

